public/operators/nobg/rabona.svg

<svg width="105" height="20" viewBox="0 0 105 20" fill="none" xmlns="http://www.w3.org/2000/svg">
<path d="M0 3.63292H4.08805L13.6264 18.6223H9.53833L0 3.63292Z" fill="white"/>
<path fill-rule="evenodd" clip-rule="evenodd" d="M10.8581 1.69531C9.61804 0.565104 7.86685 0 5.60522 0H0V3.54215H6.25838C7.36412 3.54215 8.10985 3.85471 8.49559 4.47886C8.88131 5.08569 9.07353 5.71838 9.07353 6.3767C9.07353 6.76441 8.98159 7.16945 8.7971 7.59108C8.61259 8.01271 8.31108 8.38384 7.89257 8.70446C7.4734 9.00799 6.92055 9.15976 6.23396 9.15976H0V18.6228H3.64509V12.7275H6.25838C7.78328 12.7275 9.02273 12.4152 9.9787 11.7911C10.9501 11.1674 11.6457 10.3741 12.0648 9.4123C12.5 8.43459 12.718 7.38856 12.718 6.27519C12.718 4.33564 12.0983 2.80868 10.8581 1.69531Z" fill="white"/>
<path d="M26.7979 15.3957H20.7933L19.3173 18.9359H15.7988L23.9679 0.129326H24.1646L32.3335 18.9359H28.1999L26.7979 15.3957ZM25.6169 12.3967L23.8694 7.99613L22.0489 12.3967H25.6169ZM44.2995 9.39767C45.2508 9.83979 45.9889 10.4217 46.5135 11.143C47.0555 11.8477 47.3253 12.6665 47.3253 13.6013C47.3253 15.4367 46.7185 16.7887 45.5049 17.6578C44.3078 18.5096 42.8067 18.9359 41.0021 18.9359H34.9738V0.842293H40.2884C42.2082 0.842293 43.7168 1.23562 44.8163 2.02252C45.9155 2.79259 46.4645 3.91523 46.4645 5.39045C46.4645 6.29179 46.2761 7.0865 45.8989 7.77507C45.5214 8.4468 44.9878 8.9875 44.2995 9.39767ZM38.5418 8.24233H40.7071C41.3627 8.24233 41.8712 8.04566 42.2326 7.65209C42.5932 7.24192 42.7738 6.74246 42.7738 6.15246C42.7738 5.54612 42.5681 5.08716 42.1586 4.77606C41.7485 4.44813 41.1826 4.28416 40.4609 4.28416H38.5418V8.24233ZM40.8305 15.6167C41.6662 15.6167 42.3392 15.4535 42.8477 15.1256C43.3723 14.781 43.6346 14.273 43.6346 13.6013C43.6346 12.3227 42.6176 11.6837 40.5836 11.6837H38.5418V15.6167H40.8305ZM84.9902 0.842293V19.6732H84.8911L72.2194 8.24159L72.2934 18.9359H68.6766V0.129326H68.8237L81.4709 11.7332L81.3977 0.842781L84.9902 0.842293ZM98.61 15.3957H92.6061L91.1294 18.9359H87.6112L95.7801 0.129326H95.9767L104.147 18.9359H100.012L98.61 15.3957ZM97.429 12.3967L95.6817 7.99613L93.861 12.3967H97.429ZM51.4223 1.49353H64.1486V5.12962H51.4223V1.49353Z" fill="white"/>
<path fill-rule="evenodd" clip-rule="evenodd" d="M57.7861 19.2201C61.3007 19.2201 64.1492 16.3714 64.1492 12.8568C64.1492 9.34301 61.3007 6.49382 57.7861 6.49382C54.272 6.49382 51.4229 9.34301 51.4229 12.8568C51.4229 16.3714 54.272 19.2201 57.7861 19.2201ZM57.7878 15.584C58.5113 15.584 59.2047 15.2966 59.7162 14.7852C60.2276 14.2738 60.515 13.5803 60.515 12.8568C60.515 12.1336 60.2276 11.4399 59.7162 10.9285C59.2047 10.4171 58.5113 10.1299 57.7878 10.1299C57.0646 10.1299 56.3709 10.4171 55.8595 10.9285C55.3481 11.4399 55.0609 12.1336 55.0609 12.8568C55.0609 13.5803 55.3481 14.2738 55.8595 14.7852C56.3709 15.2966 57.0646 15.584 57.7878 15.584Z" fill="#ECFD00"/>
<path opacity="0.2" fill-rule="evenodd" clip-rule="evenodd" d="M10.8993 14.0424L8.76238 10.9007C8.39143 11.0459 7.95235 11.1186 7.44449 11.1186H4.53999L6.96747 14.6866H7.47147C8.82345 14.6866 9.96584 14.4719 10.8993 14.0424ZM5.42907 5.44974H0.20701H0.228213L0 3.63292H4.24941L5.45094 5.44974H5.42907Z" fill="black"/>
</svg>

<svg xmlns="http://www.w3.org/2000/svg" width="105" height="20" fill="none"><path fill="#fff" d="M0 3.63h4.09l9.54 15h-4.1L0 3.62Z"/><path fill="#fff" fill-rule="evenodd" d="M10.86 1.7C9.62.57 7.86 0 5.6 0H0v3.54h6.26c1.1 0 1.85.31 2.24.94.38.6.57 1.24.57 1.9 0 .38-.09.79-.27 1.21-.19.42-.49.8-.9 1.11-.43.3-.98.46-1.67.46H0v9.46h3.65v-5.9h2.6a6.7 6.7 0 0 0 3.73-.93 5.35 5.35 0 0 0 2.08-2.38c.44-.98.66-2.02.66-3.13 0-1.94-.62-3.47-1.86-4.58Z" clip-rule="evenodd"/><path fill="#fff" d="M26.8 15.4h-6l-1.48 3.54H15.8L23.97.13h.2l8.16 18.8H28.2l-1.4-3.53Zm-1.18-3L23.87 8l-1.82 4.4h3.57Zm18.68-3a5.56 5.56 0 0 1 2.21 1.74c.55.7.82 1.53.82 2.46 0 1.84-.61 3.19-1.83 4.06a7.57 7.57 0 0 1-4.5 1.28h-6.03V.84h5.32c1.92 0 3.43.4 4.53 1.18 1.1.77 1.64 1.9 1.64 3.37a4.35 4.35 0 0 1-2.16 4Zm-5.76-1.16h2.17c.65 0 1.16-.2 1.52-.59.36-.4.54-.9.54-1.5s-.2-1.06-.61-1.37c-.41-.33-.98-.5-1.7-.5h-1.92v3.96Zm2.3 7.38c.83 0 1.5-.17 2-.5.53-.34.8-.85.8-1.52 0-1.28-1.02-1.92-3.06-1.92h-2.04v3.94h2.3ZM84.98.84v18.83h-.1L72.22 8.24l.07 10.7h-3.61V.13h.14l12.65 11.6L81.4.84h3.59ZM98.61 15.4h-6l-1.48 3.54H87.6L95.78.13h.2l8.17 18.8H100l-1.4-3.53Zm-1.18-3L95.68 8l-1.82 4.4h3.57Zm-46-10.9h12.72v3.63H51.42V1.49Z"/><path fill="#ECFD00" fill-rule="evenodd" d="M57.79 19.22a6.36 6.36 0 1 0 0-12.73 6.36 6.36 0 0 0 0 12.73Zm0-3.64a2.73 2.73 0 1 0 0-5.45 2.73 2.73 0 0 0 0 5.45Z" clip-rule="evenodd"/><path fill="#000" fill-rule="evenodd" d="M10.9 14.04 8.76 10.9a3.6 3.6 0 0 1-1.32.22h-2.9l2.43 3.57h.5c1.35 0 2.5-.22 3.43-.65ZM5.43 5.45H.2h.02L0 3.63h4.25l1.2 1.82h-.02Z" clip-rule="evenodd" opacity=".2"/></svg>
